X:431
T:Chantreuse,The. RH.432
R:jig
S:Rev.R.Harrison’s MS,c1815,Cumbria
O:England
A:Temple Sowerby,Cumbria
Z:vmp.Simon Wilson. Review PJH, 2008.
M:6/8
L:1/8
Q:3/8=120
K:D
A|d2d dcd|e2c ABc|d2d f2a|e2f gfe|\
d2d dcB|c2d e2f|B2e cBc|d2z z2:|!
|:a|d’2b c’2a|d’2b a2f|d>ed fga|bge e2z/a/b/c’/|\
d’2b c’2a|d’2b afd|A>BA ABc|d3 d2:|

